!!!OTL: Gezu renmin tuanjie jin
!!!ARE: Asia, China,ÿQinghai 
!! I, 229, 1)
!!!SCT: C2071
!!!YEM: Copyright 1995, estate of Helmut Schaffrath.
**kern
*ICvox
*Ivox
*M3/8
*k[f#]
*G:
{8a
4a
=1
8e
4e
=2
8a
8b
8dd
=3
[4.ee
=4
8ee]
8a
8b
=5
8dd
8dd
8ee
=6
16dd
16b
8b
8r}
=7
{4.ee
=8
8a
8b
8dd
=9
8dd
8ee
16ee
16dd
=10
8b
16b
16dd
16b
16a
=11
8a
8g
16e
16g
=12
8a
8a
8g
=13
8e
4e
=14
4.e}
==
!!!AGN: Shange, Huar
!! Hui Han
!!!ONB: ESAC (Essen Associative Code) Database: SENGANSU
!!!AMT: simple triple
!!!AIN: vox
!!!EED: Helmut Schaffrath
!!!EEV: 1.0
*-
!!!ONB: Tied note syntax fixed by Craig Sapp, 2004/05/03/
